src/images_karasa_jaga_svg/cmd/32/starshapes.concave-star6.svg

<svg height="32" viewBox="0 0 32 32" width="32" xmlns="http://www.w3.org/2000/svg" xmlns:xlink="http://www.w3.org/1999/xlink"><linearGradient id="a" gradientUnits="userSpaceOnUse" x1="119.31445" x2="11.196257" y1="95.855515" y2="44.40062"><stop offset="0" stop-color="#fff"/><stop offset=".46428573" stop-color="#fff"/><stop offset=".77777779" stop-color="#f1f1f1"/><stop offset=".90625" stop-color="#eaeaea"/><stop offset="1" stop-color="#dfdfdf"/></linearGradient><linearGradient id="b" gradientUnits="userSpaceOnUse" x1="10.785428" x2="122.16379" y1="66.972404" y2="66.972404"><stop offset="0" stop-color="#7c9fcf"/><stop offset=".5" stop-color="#7c9ece"/><stop offset="1" stop-color="#7b9dcf"/></linearGradient><path d="m80.896484 11.535156c-1.030433-.02294-2.026407.371505-2.761718 1.09375-17.84222 21.848534-22.815195 19.604929-48.158204 12.44336-2.83668-.800764-5.473019 1.776868-4.736328 4.630859 9.999708 26.374092 5.569608 29.560268-13.300781 47.927734-2.1103635 2.056368-1.196311 5.626717 1.642578 6.416016 27.83819 4.529444 28.383476 9.957916 34.853516 35.482425.724315 2.85761 4.275373 3.85247 6.378906 1.78711 17.840612-21.847019 22.814718-19.60272 48.156247-12.44336 2.83668.80077 5.47302-1.77687 4.73633-4.63086-10.000029-26.375006-5.56918-29.560536 13.30274-47.927737 2.11036-2.056369 1.19631-5.626717-1.64258-6.416015-27.839615-4.527853-28.383639-9.956753-34.853518-35.482422-.421502-1.663929-1.901134-2.842362-3.617188-2.88086z" fill="url(#b)" transform="matrix(.11258875 .23582765 -.23582765 .11258875 24.309722 -7.216896)"/><path d="m104.01034 105.19733c-28.122274-11.43203-31.647407-6.464927-51.871499 13.39486-4.160712-30.070615-10.224917-30.639918-37.536039-38.224602 23.96156-18.638589 21.422487-24.174997 14.335455-51.619463 28.122272 11.432024 31.647406 6.464919 51.871495-13.394864 4.160712 30.070614 10.224917 30.639917 37.536038 38.2246-23.961561 18.638591-21.422485 24.175001-14.33545 51.619469z" fill="url(#a)" transform="matrix(.11258875 .23582765 -.23582765 .11258875 24.309722 -7.216896)"/></svg>

<?xml version="1.0" encoding="UTF-8" standalone="no"?>
<svg
   xmlns:dc="http://purl.org/dc/elements/1.1/"
   xmlns:cc="http://creativecommons.org/ns#"
   xmlns:rdf="http://www.w3.org/1999/02/22-rdf-syntax-ns#"
   xmlns:svg="http://www.w3.org/2000/svg"
   xmlns="http://www.w3.org/2000/svg"
   xmlns:xlink="http://www.w3.org/1999/xlink"
   xmlns:sodipodi="http://sodipodi.sourceforge.net/DTD/sodipodi-0.dtd"
   xmlns:inkscape="http://www.inkscape.org/namespaces/inkscape"
   height="128"
   viewBox="0 0 128 128"
   width="128"
   version="1.1"
   id="svg2866"
   sodipodi:docname="starshapes.concave-star6.svg"
   inkscape:version="0.92.3 (unknown)"
   inkscape:export-filename="/home/rizmut/Dokumen/Rizmut/Github/libreoffice-style-karasa-jaga/build/images_karasa_jaga/cmd/32/starshapes.concave-star6.png"
   inkscape:export-xdpi="24"
   inkscape:export-ydpi="24">
  <metadata
     id="metadata2872">
    <rdf:RDF>
      <cc:Work
         rdf:about="">
        <dc:format>image/svg+xml</dc:format>
        <dc:type
           rdf:resource="http://purl.org/dc/dcmitype/StillImage" />
        <dc:title />
      </cc:Work>
    </rdf:RDF>
  </metadata>
  <defs
     id="defs2870">
    <linearGradient
       id="linearGradient3369">
      <stop
         id="stop3372"
         offset="0"
         style="stop-color:#ffffff;stop-opacity:1;" />
      <stop
         style="stop-color:#ffffff;stop-opacity:1;"
         offset="0.46428573"
         id="stop3374" />
      <stop
         style="stop-color:#f1f1f1;stop-opacity:1;"
         offset="0.77777779"
         id="stop3376" />
      <stop
         id="stop3378"
         offset="0.90625"
         style="stop-color:#eaeaea;stop-opacity:1;" />
      <stop
         id="stop3384"
         offset="1"
         style="stop-color:#dfdfdf;stop-opacity:1;" />
    </linearGradient>
    <linearGradient
       id="linearGradient7422">
      <stop
         style="stop-color:#7c9fcf;stop-opacity:1"
         offset="0"
         id="stop7424" />
      <stop
         id="stop5348"
         offset="0.5"
         style="stop-color:#7c9ece;stop-opacity:1" />
      <stop
         id="stop7426"
         offset="1"
         style="stop-color:#7b9dcf;stop-opacity:1" />
    </linearGradient>
    <linearGradient
       inkscape:collect="always"
       xlink:href="#linearGradient3369"
       id="linearGradient1501"
       x1="119.31445"
       y1="95.855515"
       x2="11.196257"
       y2="44.40062"
       gradientUnits="userSpaceOnUse" />
    <linearGradient
       inkscape:collect="always"
       xlink:href="#linearGradient7422"
       id="linearGradient1513"
       x1="10.785428"
       y1="66.972404"
       x2="122.16379"
       y2="66.972404"
       gradientUnits="userSpaceOnUse" />
  </defs>
  <sodipodi:namedview
     pagecolor="#ffffff"
     bordercolor="#666666"
     borderopacity="1"
     objecttolerance="10"
     gridtolerance="10"
     guidetolerance="10"
     inkscape:pageopacity="0"
     inkscape:pageshadow="2"
     inkscape:window-width="1366"
     inkscape:window-height="706"
     id="namedview2868"
     showgrid="true"
     inkscape:zoom="1.84375"
     inkscape:cx="130.65067"
     inkscape:cy="16.962993"
     inkscape:window-x="0"
     inkscape:window-y="0"
     inkscape:window-maximized="1"
     inkscape:current-layer="svg2866"
     inkscape:snap-global="false">
    <inkscape:grid
       type="xygrid"
       id="grid13293"
       spacingx="4"
       spacingy="4"
       empspacing="1" />
  </sodipodi:namedview>
  <linearGradient
     id="a"
     gradientUnits="userSpaceOnUse"
     x1="1.789204"
     x2="1.376028"
     y1="56.265892"
     y2="104.97279">
    <stop
       offset="0"
       stop-color="#f9f9fa"
       id="stop2853" />
    <stop
       offset="1"
       stop-color="#f9f9fa"
       stop-opacity="0"
       id="stop2855" />
  </linearGradient>
  <g
     id="g2159"
     transform="rotate(20,64.000425,63.999466)">
    <path
       transform="matrix(0.7458265,0.73239151,-0.73239151,0.7458265,63.471963,-34.635241)"
       style="opacity:1;fill:url(#linearGradient1513);fill-opacity:1;stroke:none;stroke-width:3.82664847;stroke-linecap:round;stroke-linejoin:bevel;stroke-miterlimit:4;stroke-dasharray:none;stroke-dashoffset:0;stroke-opacity:0.73039216"
       d="m 80.896484,11.535156 c -1.030433,-0.02294 -2.026407,0.371505 -2.761718,1.09375 -17.84222,21.848534 -22.815195,19.604929 -48.158204,12.44336 -2.83668,-0.800764 -5.473019,1.776868 -4.736328,4.630859 9.999708,26.374092 5.569608,29.560268 -13.300781,47.927734 -2.1103635,2.056368 -1.196311,5.626717 1.642578,6.416016 27.83819,4.529444 28.383476,9.957916 34.853516,35.482425 0.724315,2.85761 4.275373,3.85247 6.378906,1.78711 17.840612,-21.847019 22.814718,-19.60272 48.156247,-12.44336 2.83668,0.80077 5.47302,-1.77687 4.73633,-4.63086 -10.000029,-26.375006 -5.56918,-29.560536 13.30274,-47.927737 2.11036,-2.056369 1.19631,-5.626717 -1.64258,-6.416015 C 91.527575,45.370585 90.983551,39.941685 84.513672,14.416016 84.09217,12.752087 82.612538,11.573654 80.896484,11.535156 Z"
       id="path1503"
       inkscape:connector-curvature="0"
       sodipodi:nodetypes="cccccccccccccc" />
    <path
       transform="matrix(0.7458265,0.73239151,-0.73239151,0.7458265,63.471963,-34.635241)"
       style="opacity:1;fill:url(#linearGradient1501);fill-opacity:1;stroke:none;stroke-width:3.82664847;stroke-linecap:round;stroke-linejoin:bevel;stroke-miterlimit:4;stroke-dasharray:none;stroke-dashoffset:0;stroke-opacity:0.73039216"
       d="M 104.01034,105.19733 C 75.888066,93.7653 72.362933,98.732403 52.138841,118.59219 47.978129,88.521575 41.913924,87.952272 14.602802,80.367588 38.564362,61.728999 36.025289,56.192591 28.938257,28.748125 57.060529,40.180149 60.585663,35.213044 80.809752,15.353261 84.970464,45.423875 91.034669,45.993178 118.34579,53.577861 94.384229,72.216452 96.923305,77.752862 104.01034,105.19733 Z"
       id="path829"
       inkscape:connector-curvature="0"
       sodipodi:nodetypes="ccccccc" />
  </g>
</svg>
